dist/svgs/unicons/line/bag.svg

<svg xmlns="http://www.w3.org/2000/svg" viewBox="0 0 24 24"><path d="M19 6h-3V5a2 2 0 00-2-2h-4a2 2 0 00-2 2v1H5a3 3 0 00-3 3v9a3 3 0 003 3h14a3 3 0 003-3V9a3 3 0 00-3-3zm-9-1h4v1h-4zm10 13a1 1 0 01-1 1H5a1 1 0 01-1-1v-5.61L8.68 14A1.19 1.19 0 009 14h6a1.19 1.19 0 00.32-.05L20 12.39zm0-7.72L14.84 12H9.16L4 10.28V9a1 1 0 011-1h14a1 1 0 011 1z"/></svg>

<svg xmlns="http://www.w3.org/2000/svg" viewBox="0 0 24 24"><path d="M19,6H16V5a2,2,0,0,0-2-2H10A2,2,0,0,0,8,5V6H5A3,3,0,0,0,2,9v9a3,3,0,0,0,3,3H19a3,3,0,0,0,3-3V9A3,3,0,0,0,19,6ZM10,5h4V6H10ZM20,18a1,1,0,0,1-1,1H5a1,1,0,0,1-1-1V12.39L8.68,14A1.19,1.19,0,0,0,9,14h6a1.19,1.19,0,0,0,.32-.05L20,12.39Zm0-7.72L14.84,12H9.16L4,10.28V9A1,1,0,0,1,5,8H19a1,1,0,0,1,1,1Z"/></svg>
